public/svg/wallet_as_service/automated.svg

<svg width="17" height="18" viewBox="0 0 17 18" fill="none" xmlns="http://www.w3.org/2000/svg">
<path d="M15.3333 5.02816L8.24997 8.96334M8.24997 8.96334L1.16664 5.02816M8.24997 8.96334L8.25 16.88M15.75 12.3455V5.58124C15.75 5.2957 15.75 5.15294 15.7079 5.0256C15.6707 4.91296 15.6099 4.80955 15.5295 4.72231C15.4386 4.6237 15.3138 4.55436 15.0642 4.4157L8.89753 0.98977C8.66119 0.858471 8.54302 0.792822 8.41788 0.767085C8.30712 0.744305 8.19288 0.744305 8.08213 0.767085C7.95698 0.792822 7.83881 0.858472 7.60248 0.98977L1.43581 4.4157C1.18621 4.55437 1.0614 4.6237 0.970528 4.72231C0.890131 4.80956 0.829289 4.91296 0.792071 5.0256C0.75 5.15294 0.75 5.2957 0.75 5.58124V12.3455C0.75 12.631 0.75 12.7738 0.792071 12.9011C0.829289 13.0138 0.890131 13.1172 0.970528 13.2044C1.0614 13.303 1.18621 13.3724 1.43581 13.511L7.60248 16.937C7.83881 17.0683 7.95698 17.1339 8.08213 17.1596C8.19288 17.1824 8.30712 17.1824 8.41788 17.1596C8.54302 17.1339 8.66119 17.0683 8.89753 16.937L15.0642 13.511C15.3138 13.3724 15.4386 13.303 15.5295 13.2044C15.6099 13.1172 15.6707 13.0138 15.7079 12.9011C15.75 12.7738 15.75 12.631 15.75 12.3455Z" stroke="#414651" stroke-width="1.5" stroke-linecap="round" stroke-linejoin="round"/>
</svg>

<svg xmlns="http://www.w3.org/2000/svg" width="17" height="18" fill="none" viewBox="0 0 17 18"><path stroke="#414651" stroke-linecap="round" stroke-linejoin="round" stroke-width="1.5" d="M15.333 5.028 8.25 8.963m0 0L1.167 5.028M8.25 8.963v7.917m7.5-4.534V5.58c0-.285 0-.428-.042-.555a.8.8 0 0 0-.178-.304c-.091-.098-.216-.168-.466-.306L8.898.99C8.66.858 8.543.793 8.418.767a.8.8 0 0 0-.336 0c-.125.026-.243.091-.48.223L1.436 4.416c-.25.138-.375.208-.465.306a.8.8 0 0 0-.179.304c-.042.127-.042.27-.042.555v6.764c0 .286 0 .429.042.556a.8.8 0 0 0 .179.303c.09.099.215.168.465.307l6.166 3.426c.237.131.355.197.48.223.11.022.225.022.336 0 .125-.026.243-.092.48-.223l6.166-3.426c.25-.139.375-.208.466-.307a.8.8 0 0 0 .178-.303c.042-.127.042-.27.042-.556"/></svg>
